X: 3
T: When Sick Is It Tea That You Want?
R: jig
M: 6/8
L: 1/8
K: Dmaj
|:A|Add dcB|AdB AFG|Add cde|fdB BAF|Add dcB|AdB AFG|Add cde|fdc d2:| |:f/g/|add d2 =c|BGG G2 g/a/|bee e2 d|cAA A2 B|Add dcB|AdB AFG|Add cde|fdc d2:|


Tune 427	Setting 27907

